X:1
T:Let Him Go, Let Him Tarry
M:4/4
L:1/8
K:G
 DD DD BG GG| AG FE D4| AA ABc-A AF| DD ED B,3 D| DD DD BG GG| AG FE D3 D|\
 A2 AB c A2 F| DD EF G2 B,B,| D2 DD BG GG| AG FE D4| A2 AB cA AF| DD EC B,2 B,C|\
 DD DD BG GG| AG FE D3 D| A2 AB c A2 F| D2 EF G2 z2|
